ui/StatusQ/src/assets/img/icons/tiny/message/sent.svg

<svg fill="none" height="17" viewBox="0 0 16 17" width="16" xmlns="http://www.w3.org/2000/svg"><path clip-rule="evenodd" d="m12.2774 4.08403c.2297.15317.2918.46361.1386.69337l-4.99997 7.5c-.08682.1302-.22964.2123-.38588.2217-.15625.0095-.3079-.0548-.40977-.1737l-3-3.49995c-.17971-.20966-.15543-.52531.05423-.70503.20967-.17971.52532-.15543.70503.05424l2.39864 2.79844c.08626.1006.24475.091.31827-.0192l4.48745-6.7312c.1532-.22976.4636-.29185.6934-.13867z" fill="#000" fill-rule="evenodd"/></svg>

<svg width="16" height="17" viewBox="0 0 16 17" fill="none" xmlns="http://www.w3.org/2000/svg">
<path fill-rule="evenodd" clip-rule="evenodd" d="M12.2774 4.08403C12.5071 4.2372 12.5692 4.54764 12.416 4.7774L7.41603 12.2774C7.32921 12.4076 7.18639 12.4897 7.03015 12.4991C6.8739 12.5086 6.72225 12.4443 6.62038 12.3254L3.62038 8.82545C3.44067 8.61579 3.46495 8.30014 3.67461 8.12042C3.88428 7.94071 4.19993 7.96499 4.37964 8.17466L6.77828 10.9731C6.86454 11.0737 7.02303 11.0641 7.09655 10.9539L11.584 4.2227C11.7372 3.99294 12.0476 3.93085 12.2774 4.08403Z" fill="black"/>
</svg>
